icons/skull-2-line.svg

<svg xmlns="http://www.w3.org/2000/svg" width="24" height="24" fill="none"><g clip-path="url(#a)"><g><path fill="#121212" d="M12 2C17.523 2 22 6.477 22 12V15.764C22 16.1355 21.8965 16.4996 21.7012 16.8156C21.5058 17.1316 21.2263 17.3869 20.894 17.553L18 19V20C18 20.7652 17.7077 21.5015 17.1827 22.0583C16.6578 22.615 15.9399 22.9501 15.176 22.995L14.95 23C14.972 22.8911 14.9867 22.7809 14.994 22.67L15 22.5V22C15.0002 21.4954 14.8096 21.0094 14.4665 20.6395C14.1234 20.2695 13.6532 20.0428 13.15 20.005L13 20H11C10.4954 19.9998 10.0094 20.1904 9.63945 20.5335C9.26947 20.8766 9.04284 21.3468 9.005 21.85L9 22V22.5C9 22.671 9.017 22.839 9.05 23H9C8.20435 23 7.44129 22.6839 6.87868 22.1213C6.31607 21.5587 6 20.7956 6 20V19L3.106 17.553C2.77353 17.3869 2.49394 17.1314 2.29858 16.8152C2.10322 16.499 1.99983 16.1347 2 15.763V12C2 6.477 6.477 2 12 2ZM12 4C9.92157 4.00002 7.92474 4.80894 6.4323 6.25547C4.93985 7.702 4.06895 9.67259 4.004 11.75L4 12V15.764L8 17.764V19.355L8.075 19.271C8.7833 18.5107 9.76016 18.0565 10.798 18.005L11 18L13.073 18.001L13.296 18.011C14.295 18.085 15.186 18.521 15.846 19.188L16 19.355V17.764L20 15.764V12C20 9.87827 19.1571 7.84344 17.6569 6.34315C16.1566 4.84285 14.1217 4 12 4ZM8 11C8.53043 11 9.03914 11.2107 9.41421 11.5858C9.78929 11.9609 10 12.4696 10 13C10 13.5304 9.78929 14.0391 9.41421 14.4142C9.03914 14.7893 8.53043 15 8 15C7.46957 15 6.96086 14.7893 6.58579 14.4142C6.21071 14.0391 6 13.5304 6 13C6 12.4696 6.21071 11.9609 6.58579 11.5858C6.96086 11.2107 7.46957 11 8 11ZM16 11C16.5304 11 17.0391 11.2107 17.4142 11.5858C17.7893 11.9609 18 12.4696 18 13C18 13.5304 17.7893 14.0391 17.4142 14.4142C17.0391 14.7893 16.5304 15 16 15C15.4696 15 14.9609 14.7893 14.5858 14.4142C14.2107 14.0391 14 13.5304 14 13C14 12.4696 14.2107 11.9609 14.5858 11.5858C14.9609 11.2107 15.4696 11 16 11Z"/></g></g><defs><clipPath id="a"><rect width="24" height="24" fill="white"/></clipPath></defs></svg>

<svg width="24" height="24" fill="none" xmlns="http://www.w3.org/2000/svg"><g clip-path="url(#a)"><path d="M12 2c5.523 0 10 4.477 10 10v3.764a2 2 0 0 1-1.106 1.789L18 19v1a3 3 0 0 1-2.824 2.995L14.95 23c.022-.109.037-.22.044-.33L15 22.5V22a2 2 0 0 0-1.85-1.995L13 20h-2a2 2 0 0 0-1.995 1.85L9 22v.5c0 .171.017.339.05.5H9a3 3 0 0 1-3-3v-1l-2.894-1.447A2 2 0 0 1 2 15.763V12C2 6.477 6.477 2 12 2Zm0 2a8 8 0 0 0-7.996 7.75L4 12v3.764l4 2v1.591l.075-.084a3.992 3.992 0 0 1 2.723-1.266L11 18l2.073.001.223.01a3.99 3.99 0 0 1 2.55 1.177l.154.167v-1.591l4-2V12a8 8 0 0 0-8-8Zm-4 7a2 2 0 1 1 0 4 2 2 0 0 1 0-4Zm8 0a2 2 0 1 1 0 4 2 2 0 0 1 0-4Z" /></g><defs><clipPath id="a"><path fill="#fff" d="M0 0h24v24H0z"/></clipPath></defs></svg>
